X:173
T:Catharsis
S:The Portland Collection
R:reel
M:C|
L:1/8
K:Gm
DGGF DGGF | DFGA BGAF | DGGF DGGF | DCB,C B,A,B,G, |
DGGF DGGF | DFGA BGAc | dcBc BAGF |1 DFFG G2 G2 :|2 DGGF GABc |]
|: dGGc GGBG | GAGG GABc | dFFc FFBF | FAFF GABc |
dEEc EEBE | EAEE EFGA | dcBc BAGF |1 DFFA GABc :|2 DCB,C DCDC|]

